X:206
T: ACH MUTTER GIEB MIR KEINEN MANN
N: E0109
O: Europa, Mitteleuropa, Deutschland
R: erzaehlendes Volks - Lied, Sage, Liebe, Leid, Tod
M: 4/4
L: 1/8
K: Eb
E2 | E2F2G2B2- | BAG2F2F2 | E4z2
E2 | B2c2d2B2 | e4c4 | B4z4 | z2
B2B2e2 | d3cB2c2 | B3AG4 | z2
c2B3A | G2E2F2B2- | BAG2F2F2 | E4z2

@@@ Tune index: 3856
